X: 0731
M: 4/4
L: 1/8
K: G
d | Tg>ab>g e>gd>g | Tg>ab>g faTa>b | Tg>ab>g d>g B>G | c>eA>d BGG ||
d | g>abg dgBg | g>ab>g f<aa>b | g<bd<g d<bB<g | c<eF<d BGG |]

